X: 13412
T: Flitter Dance
R: polka
M: 2/4
K: Edorian
GE EB|GE EF/G/|A/B/A/G/ FE|DF AG/F/|
GE E>B|GE EG|AF D/E/F|E3:|
EB B/c/d|eB Bc/d/|eB ^cA|FA DG/F/|
EB B^d|eB B/c/d|ed B/A/G/F/|E3:|

